svgs/sharp-regular/trash-can-list.svg

<svg xmlns="http://www.w3.org/2000/svg" viewBox="0 0 640 512"><!--! Font Awesome Pro 6.4.2 by @fontawesome - https://fontawesome.com License - https://fontawesome.com/license (Commercial License) Copyright 2023 Fonticons, Inc. --><path d="M131.2 0H144 272h12.8L292 10.7 338.2 80H384h32v48H384V464v48H336 80 32V464 128H0V80H32 77.8L124 10.7 131.2 0zm4.4 80h145L259.2 48H156.8L135.5 80zM80 128V464H336V128H80zm96 48v16V400v16H144V400 192 176h32zm96 0v16V400v16H240V400 192 176h32zm368-48v48H448V128H640zM608 256v48H448V256H608zM448 384h96v48H448V384z"/></svg>

<svg xmlns="http://www.w3.org/2000/svg" viewBox="0 0 640 512"><!--! Font Awesome Pro 6.6.0 by @fontawesome - https://fontawesome.com License - https://fontawesome.com/license (Commercial License) Copyright 2024 Fonticons, Inc. --><path d="M131.2 0L144 0 272 0l12.8 0L292 10.7 338.2 80 384 80l32 0 0 48-32 0 0 336 0 48-48 0L80 512l-48 0 0-48 0-336L0 128 0 80l32 0 45.8 0L124 10.7 131.2 0zm4.4 80l145 0L259.2 48 156.8 48 135.5 80zM80 128l0 336 256 0 0-336L80 128zm96 48l0 16 0 208 0 16-32 0 0-16 0-208 0-16 32 0zm96 0l0 16 0 208 0 16-32 0 0-16 0-208 0-16 32 0zm368-48l0 48-192 0 0-48 192 0zM608 256l0 48-160 0 0-48 160 0zM448 384l96 0 0 48-96 0 0-48z"/></svg>
